X:211 
T:Tommy Whelan's (reel) 
T:Humors of Loughrea
B:CRE3.087 (RÃÂÃÂÃÂÃÂ­l ThomÃÂÃÂÃÂÃÂ¡is UÃÂÃÂÃÂÃÂ­ FhaolÃÂÃÂÃÂÃÂ¡in)
F:file ID: cre.3/211tommy_w
R:reel
Q:180
M:C
L:1/8
K:G
G3A BAA2|bgag egd2|GEGA BAGE|ABAG EGDE|
G3A BAA2|bgag egdB|G2GA BAGE|ABAG E3||
f|gfeg fdBd|g2ef gaba|gee2 edBd|eaa2 age2|
gfeg fdBd|g2ef gab2|gfge agaf|dgbg egdB||


